Numix/16/mimetypes/application-x-mswinurl.svg

<?xml version="1.0" encoding="UTF-8" standalone="no"?>
<svg
   xmlns:dc="http://purl.org/dc/elements/1.1/"
   xmlns:cc="http://creativecommons.org/ns#"
   xmlns:rdf="http://www.w3.org/1999/02/22-rdf-syntax-ns#"
   xmlns:svg="http://www.w3.org/2000/svg"
   xmlns="http://www.w3.org/2000/svg"
   xmlns:sodipodi="http://sodipodi.sourceforge.net/DTD/sodipodi-0.dtd"
   xmlns:inkscape="http://www.inkscape.org/namespaces/inkscape"
   width="16"
   height="16"
   viewBox="0 0 16 16"
   id="svg2"
   version="1.1"
   inkscape:version="0.91 r13725"
   sodipodi:docname="application-x-mswinurl.svg">
  <metadata
     id="metadata14">
    <rdf:RDF>
      <cc:Work
         rdf:about="">
        <dc:format>image/svg+xml</dc:format>
        <dc:type
           rdf:resource="http://purl.org/dc/dcmitype/StillImage" />
        <dc:title />
      </cc:Work>
    </rdf:RDF>
  </metadata>
  <defs
     id="defs12" />
  <sodipodi:namedview
     pagecolor="#ffffff"
     bordercolor="#666666"
     borderopacity="1"
     objecttolerance="10"
     gridtolerance="10"
     guidetolerance="10"
     inkscape:pageopacity="0"
     inkscape:pageshadow="2"
     inkscape:window-width="1920"
     inkscape:window-height="1013"
     id="namedview10"
     showgrid="true"
     inkscape:zoom="22.627417"
     inkscape:cx="-14.787595"
     inkscape:cy="-0.90980649"
     inkscape:window-x="0"
     inkscape:window-y="27"
     inkscape:window-maximized="1"
     inkscape:current-layer="svg2">
    <inkscape:grid
       type="xygrid"
       id="grid4149" />
  </sodipodi:namedview>
  <path
     style="fill:#dcdcdc;fill-opacity:1"
     d="M 2.667969,-4.46e-4 C 2.324219,-4.46e-4 2,0.337812 2,0.6964467 L 2,15.303108 C 2,15.641365 2.34375,16 2.667969,16 l 10.664062,0 C 13.65625,16 14,15.641365 14,15.303108 L 14,3.9995538 10,-4.46e-4 z"
     id="path4"
     inkscape:connector-curvature="0"
     sodipodi:nodetypes="ssssssccs" />
  <path
     style="fill:#000000;fill-opacity:0.19599998"
     d="m 10.583223,3.3315848 0.0154,0.01953 0.04005,-0.01953 z m 0.02978,0.667969 3.387,3.664062 0,-3.664062 z"
     id="path6"
     inkscape:connector-curvature="0"
     sodipodi:nodetypes="cccccccc" />
  <path
     style="fill:#ffffff;fill-opacity:0.39200003"
     d="m 10,-4.46e-4 3.996396,3.9999998 -3.383784,0 C 10.313513,3.9995538 10,3.6824368 10,3.3833378 z"
     id="path8"
     inkscape:connector-curvature="0"
     sodipodi:nodetypes="ccssc" />
  <path
     inkscape:connector-curvature="0"
     style="fill:#888888;fill-opacity:1"
     id="link-2-icon"
     d="m 9.7828669,7.3220404 c 0.2065989,0.1944478 0.2065989,0.5097293 -2.08e-5,0.7041966 l -2.8175725,2.651848 c -0.2066014,0.194467 -0.5415877,0.194448 -0.7481887,-1.8e-5 l 0,0 C 6.0104439,10.483621 6.0104439,10.168338 6.2170636,9.9738912 L 9.034617,7.3220401 c 0.2066201,-0.1944455 0.5416068,-0.1944455 0.7482499,0 l 0,0 z M 6.5463579,11.78405 c -0.4147482,0.390369 -1.0895917,0.390369 -1.5043589,0 -0.4147486,-0.390369 -0.4147486,-1.025477 0,-1.415868 L 7.0389048,8.4908795 C 6.3688269,8.3377704 5.6325017,8.5074314 5.1092757,8.9998895 L 4.3487092,9.7156962 c -0.7982788,0.7512828 -0.7982788,1.9694988 0,2.7208398 0.7983006,0.751285 2.0926146,0.751285 2.8908959,0 l 0.760546,-0.715807 C 8.5232943,11.228339 8.7035683,10.535445 8.5410172,9.9048623 L 6.5463579,11.78405 Z M 8.7603658,5.5635132 7.9998834,6.2793021 C 7.4766361,6.7717673 7.2952461,7.4636928 7.4579034,8.0943734 L 9.4536555,6.2160002 c 0.4147677,-0.3903505 1.0895705,-0.3903505 1.5043385,0 0.414769,0.3903493 0.414769,1.0254776 2.1e-5,1.4158483 L 8.9623853,9.5101043 c 0.670038,0.152991 1.4051877,-0.01755 1.9284137,-0.510021 l 0.760545,-0.7158068 c 0.798218,-0.7513231 0.798218,-1.9694808 -6.1e-5,-2.7208214 -0.7983,-0.7512829 -2.0925747,-0.7512829 -2.8909172,5.81e-5 z" />
</svg>

<svg xmlns="http://www.w3.org/2000/svg" viewBox="0 0 16 16">
 <path d="m 2.668 0 c -0.344 0 -0.668 0.338 -0.668 0.697 l 0 14.607 c 0 0.338 0.344 0.697 0.668 0.697 l 10.664 0 c 0.324 0 0.668 -0.359 0.668 -0.697 l 0 -11.304 -4 -4 z" style="fill:#dcdcdc;fill-opacity:1"/>
 <path d="m 10.583 3.332 0.015 0.02 0.04 -0.02 z m 0.03 0.668 3.387 3.664 0 -3.664 z" style="fill:#000;fill-opacity:0.196"/>
 <path d="m 10 0 3.996 4 -3.384 0 c -0.299 0 -0.613 -0.317 -0.613 -0.616 z" style="fill:#fff;fill-opacity:0.392"/>
 <path d="m 9.783 7.322 c 0.207 0.194 0.207 0.51 0 0.704 l -2.818 2.652 c -0.207 0.194 -0.542 0.194 -0.748 0 l 0 0 c -0.207 -0.194 -0.207 -0.51 0 -0.704 l 2.818 -2.652 c 0.207 -0.194 0.542 -0.194 0.748 0 l 0 0 z m -3.237 4.462 c -0.415 0.39 -1.09 0.39 -1.504 0 -0.415 -0.39 -0.415 -1.025 0 -1.416 l 1.997 -1.877 c -0.67 -0.153 -1.406 0.017 -1.93 0.509 l -0.761 0.716 c -0.798 0.751 -0.798 1.969 0 2.721 0.798 0.751 2.093 0.751 2.891 0 l 0.761 -0.716 c 0.523 -0.492 0.703 -1.185 0.541 -1.816 l -1.995 1.879 m 2.214 -6.221 -0.76 0.716 c -0.523 0.492 -0.705 1.184 -0.542 1.815 l 1.996 -1.878 c 0.415 -0.39 1.09 -0.39 1.504 0 0.415 0.39 0.415 1.025 0 1.416 l -1.996 1.878 c 0.67 0.153 1.405 -0.018 1.928 -0.51 l 0.761 -0.716 c 0.798 -0.751 0.798 -1.969 0 -2.721 -0.798 -0.751 -2.093 -0.751 -2.891 0 z" style="fill:#888;fill-opacity:1"/>
</svg>
